X:1
T:Title
%%score { ( 1 3 ) | ( 2 4 ) }
L:1/8
M:6/8
K:D
V:1 treble nm="Grand Piano"
V:3 treble 
V:2 bass 
V:4 bass 
V:1
 z3 z2[Q:1/4=90] D | F2 F [EG][DF][EG] | [FA]3 z3 | A2 D EF[CG] | [DF]3- [DF]2 [FA] | dc[Fd] edB | %6
 [FA]2 [Fd] [FA]2 [DB] | [DA]2[K:bass] [F,D] .[A,CE]2[K:treble] [A,CG] | %8
[M:13/8] [A,DF]-[A,DF]- [A,DF]3 z z z z z z z2 |[M:3/4] [B,DG]6 | [A,DF]6 |] %11
V:2
 z3 z2 [D,F,] | [D,A,D]2 [D,A,D] [D,A,]2 [D,A,] | .[D,A,]3 [G,B,]2 [G,D] | %3
 [F,A,D]2 [F,A,] [E,A,C]2 [A,,A,] | [D,A,]3- [D,A,]2 [D,A,] | %5
 [D,A,]2 [D,A,][K:treble] [G,B,G]2 [G,DG] | [D,D]2 [D,A,] [D,A,]2 [G,,G,] | [A,,F,]2 A,, z FA,, | %8
[M:13/8] D,-D,- D,3 z z z z z z z2 |[M:3/4] G,,6 | D,6 |] %11
V:3
 x6 | x6 | z2 =C G2 B | x6 | x6 | .F3 z3 | x6 | x2[K:bass] x3[K:treble] x |[M:13/8] x13 | %9
[M:3/4] x6 | x6 |] %11
V:4
 x6 | x6 | x6 | x6 | x6 | x3[K:treble] x3 | x6 | z3 .A,,3 |[M:13/8] x13 |[M:3/4] x6 | x6 |] %11

